X: 088
T: Island of Love
B: 204 Favourite Country Dances
N: Published by Straight & Skillern, London ca.1775
F: http://imslp.org/wiki/204_Favourite_Country_Dances_(Various) p.44 #88
Z: 2014 John Chambers <jc:trillian.mit.edu>
M: C|
L: 1/8
K: G
% - - - - - - - - - - - - - - - - - - - - - - - - -
Bc |\
dBAB G2AB | cAFA DFAc |\
Bgfe dcBA | B2G>G G2 :|\
|: Bc |\
dBed d2Bc | dBed d2Bc |
dBgf edcB | BAAA A2Bc |\
dBAB G2AB | cAFA DFAc |\
Bgfe dcBA | B2G>G G2 :|
% - - - - - - - - - - - - - - - - - - - - - - - - -
%%begintext align
%% 1st & 2d Cu. foot it & change places .|
%% that back again :| hands round all 6
%% back to back .|. cross over one Cu. &
%% right & left :|:
%%endtext

%%sep 1 1 500
%%sep 1 1 500
